X: 2517
T: Ballydesmond, The
R: polka
M: 2/4
K: Dmajor
|:D>E FD|dc BA|BE EF|G2 FE|
D>E FD|dc BA|Be Bc|d2 d2:|
|:eB eB|eB B>c|dA dA|dA A(3B/c/d/|
eB eB|eB B>c|dB AF|E2 E2:|

